X:1
T:Ad te levavi oculus meos
T:Palestrina
T:Ad te levavi oculus meos
T:Copyright © 2014 by CPDL.  This edition can be fully distributed, duplicated, performed, and recorded 
T:Copyright © 2014 by CPDL.  This edition can be fully distributed, duplicated, performed, and recorded 
T:Copyright © 2014 by CPDL.  This edition can be fully distributed, duplicated, performed, and recorded 
T:Copyright © 2014 by CPDL.  This edition can be fully distributed, duplicated, performed, and recorded 
T:Copyright © 2014 by CPDL.  This edition can be fully distributed, duplicated, performed, and recorded 
T:Copyright © 2014 by CPDL.  This edition can be fully distributed, duplicated, performed, and recorded 
T:Copyright © 2014 by CPDL.  This edition can be fully distributed, duplicated, performed, and recorded 
T:Copyright © 2014 by CPDL.  This edition can be fully distributed, duplicated, performed, and recorded 
T:Copyright © 2014 by CPDL.  This edition can be fully distributed, duplicated, performed, and recorded 
T:Copyright © 2014 by CPDL.  This edition can be fully distributed, duplicated, performed, and recorded 
T:Copyright © 2014 by CPDL.  This edition can be fully distributed, duplicated, performed, and recorded 
T:Copyright © 2014 by CPDL.  This edition can be fully distributed, duplicated, performed, and recorded 
T:Copyright © 2014 by CPDL.  This edition can be fully distributed, duplicated, performed, and recorded 
T:Copyright © 2014 by CPDL.  This edition can be fully distributed, duplicated, performed, and recorded 
T:Copyright © 2014 by CPDL.  This edition can be fully distributed, duplicated, performed, and recorded 
C:Palestrina
Z:Copyright © 2014 by CPDL.  This edition can be fully distributed, duplicated, performed, and recorded
%%score [ 1 2 3 4 ]
L:1/8
Q:1/2=100
M:4/2
K:D
V:1 treble nm="SOPRANO" snm="S."
V:2 treble nm="ALTO" snm="A."
V:3 treble-8 transpose=-12 nm="TENOR" snm="T."
V:4 bass nm="BASS" snm="B."
V:1
"^Psalm 121:  To thee have I lifted up my eyes, who dwellest in heaven. Behold as the eyes of the servants are on the hands of their masters, As the eyes of the handmaid are on the hands of her mistress: so are our eyes unto the Lord our God, until he have mercy on us. Have mercy on us, O Lord, have mercy on us: for we are greatly filled with contempt. For our soul is greatly filled: we are a reproach to the rich, and contempt to the proud." E8 B4 B4 | %1
w: Ad te le-|
 e8 d4 B4- | B2 A2 A4 d8 | B4 G6 F2 F4 | E2 F2 G2 A2 B2 c2 d2 B2 | c8 B8- | B8 z8 | B8 A6 F2 | %8
w: va- vi o-|* cu- los me-|os, o- cu- los|me- * * * * * * *|* os,|_|qui ha- bi-|
 G4 A4 (B2 c2 d2 B2 | c8) (B4 A2 G2 | F4) B4 B4 A4 | (G2 A2 B2 G2 A4) B4- | B4 A6 G2 G2 FE | %13
w: tas in cae- * * *|* lis, _ _|_ qui ha- bi-|tas _ _ _ _ in|_ cae- * * * *|
 F8 G6 F2 | G2 A2 B8 ^A4 | B16 ||[M:3/1] z4 B8 F4 B4 c4 ||[M:4/2] d6 c2 B4 ^A4 | B6 =A2 G4 F4 | %19
w: ||lis.|Ec- ce sic- ut|o- cu- li ser-|vo- * * *|
 G6 E2 F2 G2 A2 F2 | G8 F4 d4- | d4 c6 B2 B4- | B4 ^A4 B8 | z4 F4 G6 G2 | F16 || %25
w: |* rum, ser-|* vo- * *|* * rum|in ma- ni-|bus|
[M:3/1] z8 z8 z4 B4- ||[M:4/2] B4 ^A4 B8- | B8 =A4 G4 | F8 E4 G4- | G4 A4 B6 A2 | G4 F4 E4 E4 | %31
w: do-|* mi- no-|* rum su-|o- rum, sic-|* ut o- cu-|li an- cil- lae,|
 z4 B8 c4 | d6 c2 B4 ^A4 | (B6 =A2 G8) | F16 | z8 z4 F4 | G6 G2 F4 B4 | A4 G4 F2 GA B4- | %38
w: sic- ut|o- cu- li an-|cil- * *|lae|in|ma- ni- bus do-|mi- nae su- * * *|
 B4 ^A4 B8 | z16 | z4 F4 G6 G2 | F4 B8 A4- | A4 G4 F8 | F8 z4 F2 ^G2 | A2 B2 c2 A2 B2 c2 d4- | %45
w: * * ae,||in ma- ni-|bus do- mi-|* nae su-|ae, i- *||
 d4 c2 B2 c4 B4- | B2 A2 A4 F2 ^G2 A2 F2 | =G4 F4 E8 | z8 z4 B4- | B2 B2 B4 ^A8 | B4 G4 F6 E2 | %51
w: ~~~~­~~~- * * * ta|_ _ _ i- * * *|* * ta|o-|* cu- li no-|stri ad Do- mi-|
 D4 d4 c4 c4- | c2 B2 B8 ^A4 | B4 G4 F8- | F4 F4 F8 | F12 F4 | (G8 F8 | G8) F8- | F8 z8 | z16 | %60
w: num De- um no-||strum, ad Do-|* mi- num|De- um|no- *|* strum,|_||
 z8 c8 | d12 c4 | d4 c4 (B6 A2 | G8) F8- | F8 G8 | F4 G8 A4- | A4 G4 A4 G4 | F4 E8 ^D4 | E16- | %69
w: mi-|se- re-|a- tur no- *|* stri,|_ do-|nec mi- se-|* re- a- tur|no- * *|stri.|
 E16- | E16- | E16 |]"^SECUNDA PARS" F16 | F8 G8- | G8 F8 | E8 =D8 | G12 A4 | B6 A2 B2 c2 d4- | %78
w: _|||Mi-|se- re-|* re|no- stri,|Do- mi-|ne, _ _ _ _|
 d4 c2 B2 ^A4 B4- | B4 ^A4 B6 =AG | F16- | F16 | z4 B8 A4 | (d6 c2 B2 A2 B4-) | B4 A4 G8 | F8 F8 | %86
w: _ _ _ _ _||||mi- se-|re- * * * *|* re no-|stri, mi-|
 F4 G8 F4- | F4 E4 F8 | z4 B8 B4 | B4 B4 e8- | e4 !courtesy!^d4 z4 B4- | B4 B4 =c8 | B4 G4 A4 B4 | %93
w: se- re- re|_ no- stri,|mi- se-|re- re no-|* stri, qui-|* a mul-|tum re- ple- ti|
 =c8 B8- | B4 B4 A4 G4 | F8 E6 D2 | C8 (B,2 C2 D2 E2 | F8) z4 E4- | E4 F4 G8 | F4 D4 E4 F4 | %100
w: su- mus|_ de- spe- cti-|o- * *|* ne, _ _ _|_ qui-|* a mul-|tum re- ple- ti|
 (G6 A2 B4 =c4) | B8 B8 | A8 B4 d4- | d2 c2 B8 ^A4 | B8 z4 c4 | d4 c4 B4 A2 G2 | F4 E6 F2 G4- | %107
w: su- * * *|mus de-|spe- cti- o-||ne, de-|spe- cti- o- * *||
 G2 F2 E8 ^D4 | E6 F2 G2 F2 G2 A2 | B8 z8 | z4 F8 F4 | G8 G4 F4 | G4 A4 B4 B4- | B2 A2 A4 G8 | %114
w: |ne, _ _ _ _ _|_|qui- a|mul- tum re-|ple- ta est a-|* ni- ma no-|
 F16- | F8 z8 | z8 z4 F4- | F2 F2 F4 G2 F2 F4- | F4 E4 F8- | F8 z8 | z16 | z4 E4 B6 B2 | %122
w: stra,|_|a-|* ni- ma no- * *|* * stra,|_||op- pro- bri-|
 B4 A8 ^G4 | A4 F4 E8- | E8 z4 F4- | F4 D4 A4 A4 | B4 c4 d8 | c8 z4 B4- | B4 F4 A8- | %129
w: um a- bun-|dan- ti- bus,|_ et|_ de- spe- cti-|o su- per-|bis, et|_ de- spe-|
 A4 =G4 F4 E4 | F8 E4 G4- | G4 F4 F6 F2 | E8 E8 | B16 | ^G16- | G16 |] %136
w: * cti- o su-|per- bis, et|_ de- spe- cti-|o su-|per-|bis.|_|
V:2
 z16 | z8 B,8 | F4 F4 B8 | G4 E6 D2 D4 | G8 F8 | z4 F6 F2 D4- | D4 G6 F2 F4- | F2 ED E4 F8 | z16 | %9
w: |Ad|te le- va-|vi o- cu- los|me- os,|o- cu- los|_ me- * *|* * * * os,||
 z8 z4 E4 | D6 B,2 C4 D4 | (E2 F2 G2 E2 F8) | E4 F6 E2 E4- | E2 ^D2 D4 E6 =D2 | B,2 C2 D2 B,2 C8 | %15
w: qui|ha- bi- tas in|cae- * * * *|lis, in _ _|_ _ _ cae- *||
 B,4 (G6 E2 F4) ||[M:3/1] G8 F8 z4 F4- ||[M:4/2] F4 B,4 E4 F4 | G6 F2 E4 ^D4 | %19
w: lis, in _ _|cae- lis. Ec-|* ce sic- ut|o- cu- li ser-|
 E2 =DC B,2 C2 D2 E2 F4- | F4 E4 F8 | z4 C4 D6 D2 | C4 F8 E4 | F8 E4 D4 | C8 B,8 || %25
w: vo- * * * * * * *|* * rum|in ma- ni-|bus do- mi-|no- rum su-|o- rum,|
[M:3/1] z8 z4 F4 G6 G2 ||[M:4/2] F4 E8 ^D4 | E4 G4 F4 E4- | (E4 ^D4) (E6 =D2 | C8 B,8) | %30
w: in ma- ni-|bus do- mi-|no- rum su- o-|* * rum, _|_ _|
 z4 B,8 C4 | D6 C2 B,4 ^A,4 | B,2 ^A,2 B,2 C2 D2 E2 F2 EF | G4 F8 E4 | (F6 E2 D4 C4 | B,16) | %36
w: sic- ut|o- cu- li an-|cil- * * * * * * * *||lae _ _ _|_|
 z4 B,4 D6 D2 | C4 E4 D4 B,4 | C8 (B,2 C2 D2 E2 | F8) z8 | z8 B,8 | D6 D2 C4 F4 | E4 D4 C8 | %43
w: in ma- ni-|bus do- mi- nae|su- ae, _ _ _|_|in|ma- ni- bus do-|mi- nae su-|
 D8 B,2 C2 D2 E2 | F2 D2 E2 F2 G4 F2 E2 | F8 E4 D2 CB, | C16 | z8 z4 E4- | E2 E2 E4 ^D8 | %49
w: ae, i- * * *||* ta _ _ _|_|o-|* cu- li no-|
 E4 G4 F6 E2 | ^D4 E4 (B,2 C2 =D2 E2 | F4) F6 E2 C4 | D4 C2 B,2 C8 | B,8 D8 | C6 C2 D4 B,4 | %55
w: stri ad Do- mi-|num De- um _ _ _|_ no- * *||strum, ad|Do- mi- num De-|
 (=A,6 B,2 C4 D4) | E8 ^D8 | E8 (=D4 C2 B,2 | C4) D8 E4- | E4 D4 E4 D4 | C2 B,2 B,8 ^A,4 | B,8 F8 | %62
w: um _ _ _|no- strum,|do- nec _ _|_ mi- se-|* re- a- tur|no- * * *|stri, mi-|
 F4 F4 D4 B,4 | (E6 D2 C8) | ^D8 E8 | ^D4 D4 E8- | E4 =D4 E4 D4 | =C8 B,4 B,4 | =C12 B,4 | %69
w: se- re- a- tur|no- * *|stri, do-|nec mi- se-|* re- a- tur|no- stri, mi-|se- re-|
 =C4 B,4 A,8 | ^G,16- | G,16 |] ^D16 | ^D8 E8- | E8 F8 | G8 F4 G4- | (G2 F2 E2 D2 E4) E4 | %77
w: a- tur no-|stri.|_|Mi-|se- re-|* re|no- stri, Do-|* * * * * mi-|
 (^D6 E2 F8) | z8 F8- | F4 F4 (F6 E2 | D2 C2 D4) C4 C4- | (C4 B,8) =A,4 | D4 E4 F4 F4- | %83
w: ne, _ _|mi-|­ se- re- *|* * * re no-|* * stri,|Do- mi- ne, mi-|
 F4 D4 (G6 F2 | E2 D2 E8) D4 | C8 B,6 ^A,2 | B,2 C2 D6 B,2 C4 | B,8 D4 C4 | B,8 G,4 G4- | %89
w: * se- re- *|* * * re|no- stri, _|_ _ _ _ _|* mi- se-|re- re no-|
 G4 F4 E6 F2 | G4 F4 z4 E4- | E4 E4 E8 | E12 D4 | E4 F4 G8 | D4 G4 F4 E4- | E2 D2 D4 C2 B,2 B,4- | %96
w: |* stri, qui-|* a mul-|tum re-|ple- ti su-|mus de- spe- cti-|* * * o- * *|
 B,4 ^A,4 (B,6 C2 | D8) z8 | z16 | z16 | z4 E8 E4 | G8 F4 D4 | E4 F4 G8 | F4 F4 (G4 F2 E2 | %104
w: * * ne, _|_|||qui- a|mul- tum re-|ple- ti su-|mus de- spe- * *|
 D4) E4 F8- | F8 D8 | z4 B,4 (=C4 B,2 A,2 | G,4) A,4 B,8 | =C4 B,6 A,2 G,2 F,2 | E,8 z8 | %110
w: * cti- o-|* ne,|de- spe- * *|* cti- o-|ne, _ _ _ _|_|
 z8 z4 B,4- | B,4 B,4 D8 | D4 C4 D4 E4 | F4 F6 E2 E4 | (D6 C2 B,8) | F,4 F6 F2 E4 | D8 C8 | %117
w: qui-|* a mul-|tum re- ple- ta|est a- ni- ma|no- * *|stra, a- ni- ma|no- stra,|
 D6 D2 D4 C4- | C2 B,2 B,8 ^A,4 | z4 B,4 F6 F2 | F4 E8 ^D4 | E4 C4 B,4 E4 | E4 F8 E2 D2 | %123
w: a- ni- ma no-|* * * stra,|op- pro- bri-|um a- bun-|dan- ti- bus, a-|bun- dan- * *|
 C2 A,2 D8 C4 | B,4 E8 D4 | F12 E4 | D4 C4 B,8 | E4 E8 B,4 | D12 C4 | (C2 D2 E2 C2 D4) E4- | %130
w: ~~~~­~~~- * * ti-|bus, et de-|spe- cti-|o su- per-|bis, et de-|spe- cti-|o _ _ _ _ su-|
 E4 ^D4 E4 E4 | B,4 =D8 D4 | C4 A,2 B,2 C2 D2 E2 C2 | ^D4 (E8 D4) | E16- | E16 |] %136
w: * per- bis, et|de- spe- cti-|o su- * * * * *|* per- *|bis.|_|
V:3
 z16 | z16 | z16 | E8 B4 B4 | e8 d4 B4- | B2 A2 A4 d8 | B16 | z4 B4 c6 d2 | e4 f4 g4 f4- | %9
w: |||Ad te le-|va- vi o-|* cu- los me-|os,|qui ha- bi-|tas in cae- *|
 f2 e2 c2 d2 e8 | z16 | z4 e4 d6 B2 | c4 d4 e8 | B16 | z16 | z4 B8 F4 || %16
w: * * * * lis,||qui ha- bi-|tas in cae-|lis.||Ec- ce|
[M:3/1] B4 B4 d6 c2 B4 ^A4 ||[M:4/2] (B6 =A2 G4 F4) | E8 z8 | B12 F4 | B4 c4 d6 c2 | B4 ^A4 B8 | %22
w: sic- ut o- cu- li ser-|vo- * * *|rum,|ec- ce|sic- ut o- cu-|li ser- vo-|
 F8 z8 | z16 | F8 d6 d2 ||[M:3/1] c4 e8 ^d4 e8 ||[M:4/2] =d4 c4 B6 A2 | G2 A2 B2 c2 d4 e4 | B8 E8 | %29
w: rum||in ma- ni-|bus do- mi- no-|rum su- o- *||* rum,|
 z8 z4 E4- | E4 F4 G6 A2 | B8 z8 | z16 | z4 B8 c4 | d6 c2 B4 ^A4 | B4 E2 F2 G2 E2 F4 | B16 | z16 | %38
w: sic-|* ut o- cu-|li||sic- ut|o- cu- li an-|cil- lae _ _ _ _|_||
 z8 z4 B4 | d6 d2 c4 e4 | d4 c4 e8 | B8 z4 d4 | c4 B8 ^A4 | B16 | z16 | z16 | %46
w: in|ma- ni- bus do-|mi- nae su-|ae, do-|mi- nae su-|ae,|||
 z4 F2 ^G2 A2 B2 c2 A2 | B2 c2 d4 c4 B4- | B4 ^A4 B6 =A2 | G2 F2 E4 F8 | z16 | z16 | z16 | %53
w: i- * * * * *||* * ta _|_ _ _ _||||
 z4 B6 B2 B4 | ^A8 B4 d4 | c6 B2 ^A4 B4 | (E2 F2 G2 A2 B4) B4- | B4 B4 B8 | ^A4 A4 B8- | %59
w: o- cu- li|no- stri ad|Do- mi- num De-|um _ _ _ _ no-|* strum, do-|nec mi- se-|
 B4 =A4 B4 A4 | (G6 F2 E8) | F4 B4 B4 ^A4 | B4 ^A4 B2 c2 d2 cB | c2 B2 B8 ^A4 | B8 B8 | %65
w: * re- a- tur|no- * *|stri, mi- se- re-|a- tur no- * * * *||stri, do-|
 B4 B4 =c8- | c4 B4 =c4 B4 | A8 F4 F4 | A12 B4 | A4 B4 =c8 | B16- | B16 |] B16 | B8 B8- | B8 B8 | %75
w: nec mi- se-|* re- a- tur|no- stri, mi-|se- re-|a- tur no-|stri.|_|Mi-|se- re-|* re|
 B8 B8 | E12 E4 | F4 B2 c2 =d2 e2 f4- | f4 e2 d2 c4 d4 | c8 d8- | d4 B4 c4 c4 | d8 c8 | %82
w: no- stri,|Do- mi-|ne, Do- * * * *|* * * * mi-|ne, mi-|* se- re- re|no- stri,|
 (B8 c6) c2 | B2 A2 B2 c2 d8 | c8 z4 B4- | B4 A4 (d6 c2 | B2 ^A2 B8) =A4 | G8 F4 c4 | %88
w: Do- * mi-|ne, _ _ _ _|_ mi-|* se- re- *|* * * re|no- stri, mi-|
 d8 e4 (E2 F2 | G2 A2 B8) ^A4 | B8 ^G8- | G4 ^G4 A8 | =G4 B4 =c4 B4 | A8 G4 E4 | %94
w: se- re- re _|_ _ _ no-|stri, qui-|­ a mul-|tum re- ple- ti|su- mus de-|
 (G2 A2 B2 c2 d4) e4 | B8 E8 | z16 | z4 A8 B4 | =c8 B4 G4 | A4 B4 =c8 | (B6 A2 G4) A4 | %101
w: spe- * * * * cti-|o- ne,||qui- a|mul- tum re-|ple- ti su-|mus _ _ de-|
 E2 F2 G2 A2 B2 c2 d2 B2 | c4 d4 G2 A2 B2 c2 | d8 c8 | B4 B4 (d4 c2 B2 | A4) A4 B8 | %106
w: spe- * * * * * * *|* cti- o- * * *||ne, de- spe- * *|* cti- o-|
 B4 G4 (A4 G2 F2 | E4) E4 F8 | E8 z4 B4- | B4 B4 d8 | d4 c4 d4 d4 | e8 z4 B4- | B2 B2 A4 G8 | %113
w: ne, de- spe- * *|* cti- o-|ne, qui-|* a mul-|tum re- ple- ta|est a-|* ni- ma no-|
 F4 D4 E4 E4 | B6 c2 d8- | d4 c2 B2 A2 B2 c4- | c2 B2 B8 ^A4 | B4 d4 B4 F4 | B8 c4 c4 | %119
w: stra, re- ple- ta|est _ _|_ _ _ _ _ _||* a- ni- ma|no- stra, op-|
 d6 d2 d4 c4- | c4 B4 c4 A4 | B4 A8 G2 F2 | G4 F2 E2 D4 E4 | F4 D4 A4 A4- | A4 G4 B4 B4 | %125
w: pro- bri- um a-|* bun- dan- ti-|bus, a- * *|* * * * bun-|dan- ti- bus, et|_ de- spe- cti-|
 (A2 G2 F2 E2 D4) E4 | F2 G2 A6 ^G2 G2 FG | A8 ^G8 | z4 B4 F4 A4- | A4 E4 B4 =c4 | B8 E8 | %131
w: o _ _ _ _ su-|per- * * * * * *|* bis,|et de- spe-|* cti- o su-|per- bis,|
 z4 B8 F4 | A12 G4 | F4 E4 F8 | E16- | E16 |] %136
w: et de-|spe- cti-|o su- per-|bis.|_|
V:4
 z16 | z16 | z16 | z16 | z8 B,,8 | F,4 F,4 B,8 | G,4 E,6 D,2 D,4 | G,8 F,8 | z8 B,8 | %9
w: ||||Ad|te le- va-|vi o- cu- los|me- os,|qui|
 A,6 F,2 G,4 A,4 | (B,8 F,8) | E,8 z8 | z16 | z8 E,8- | E,4 B,,4 E,4 F,4 | G,6 F,2 E,4 ^D,4 || %16
w: ha- bi- tas in|cae- *|lis.||Ec-|* ce sic- ut|o- cu- li ser-|
[M:3/1] E,8 B,,8 z8 ||[M:4/2] z16 | z4 E,8 B,,4 | E,8 D,8 | E,6 E,2 B,,8 | B,,4 F,4 B,,8 | %22
w: vo- rum,||ec- ce|sic- ut|o- cu- li|ser- vo- rum|
 z4 F,4 G,6 G,2 | F,8 z4 B,4- | B,4 ^A,4 B,8 ||[M:3/1] =A,4 G,4 F,8 E,8 ||[M:4/2] z16 | z16 | %28
w: in ma- ni-|bus do-|* mi- no-|rum su- o- rum,|||
 z8 z4 E,4- | E,4 F,4 G,6 F,2 | E,4 ^D,4 E,8 | B,,8 z8 | z16 | z16 | z4 B,,8 F,4 | %35
w: sic-|* ut o- cu-|li an- cil-|lae,|||sic- ut|
 G,6 F,2 E,4 ^D,4 | E,8 B,,8 | z16 | F,8 G,6 G,2 | F,4 B,4 A,4 G,4 | F,8 E,8 | z8 F,8 | %42
w: o- cu- li an-|cil- lae||in ma- ni-|bus do- mi- nae|su- ae,|do-|
 A,4 B,4 F,8 | B,,16 | z8 z4 B,,2 C,2 | D,2 E,2 F,2 D,2 E,2 F,2 G,4 | F,16 | B,,8 E,6 D,2 | %48
w: mi- nae su-|ae,|i- *|~~~~­~~~- * * * * * *|ta,|i- * *|
 C,8 B,,8 | z16 | z8 z4 B,4- | B,2 B,2 B,4 ^A,8 | B,4 G,4 F,6 E,2 | ^D,4 E,4 (B,,2 C,2 =D,2 E,2 | %54
w: * ta||o-|* cu- li no-|stri ad Do- mi-|num De- um _ _ _|
 F,8) B,,8 | F,8 z8 | z16 | E,8 B,,8 | F,8 G,8- | G,4 F,4 G,4 F,4 | (E,6 D,2 C,8) | B,,8 z8 | %62
w: _ no-|strum,||do- nec|mi- se-|* re- a- tur|no- * *|stri,|
 z4 F,4 G,4 G,4 | E,4 E,4 F,8 | B,,8 E,8 | B,,8 z8 | z16 | z8 B,,8 | A,,12 ^G,,4 | %69
w: mi- se- re-|a- tur no-|stri, do-|nec||mi-|se- re-|
 A,,4 ^G,,4 A,,8 | E,16- | E,16 |] B,,16 | B,,8 E,8- | E,8 ^D,8 | E,8 B,,8 | =C,12 C,4 | B,,16 | %78
w: a- tur no-|stri.|_|Mi-|se- re-|* re|no- stri,|Do- mi-|ne,|
 F,16 | F,8 B,8- | B,8 ^A,8 | B,8 F,8 | G,6 G,2 F,8 | z4 B,8 G,4 | A,8 E,8 | F,8 B,,8- | B,,8 z8 | %87
w: mi-|se- re-|* re|no- stri,|Do- mi- ne,|mi- se-|re- re|no- stri,|_|
 z4 B,8 A,4 | (G,6 F,2 E,2 D,2 E,4-) | E,4 D,4 C,8 | B,,8 E,8- | E,4 E,4 A,,8 | E,8 z8 | z16 | %94
w: mi- se-|re- * * * *|* re no-|stri, qui-|­ a mul-|tum||
 z16 | z8 z4 E,4- | E,4 F,4 G,8 | F,4 D,4 F,4 G,4 | A,8 G,4 E,4 | D,4 B,,4 A,,8 | E,8 z8 | z16 | %102
w: |qui-|* a mul-|tum re- ple- ti|su- mus de-|spe- cti- o-|ne,||
 z16 | D,8 E,4 F,4 | G,8 F,8 | F,8 G,4 F,2 E,2 | ^D,4 E,4 A,,4 B,,4 | =C,8 B,,8 | z4 E,8 E,4 | %109
w: |re- ple- ti|su- mus|de- spe- * *|* * * cti-|o- ne,|qui- a|
 G,8 G,4 F,4 | G,4 A,4 B,6 A,2 | G,2 F,2 E,4 B,8 | z16 | z16 | z4 B,,8 B,,4 | D,8 D,4 C,4 | %116
w: mul- tum re-|ple- ta est _|_ _ _ _|||qui- a|mul- tum re-|
 D,4 E,4 F,8 | z4 B,6 B,2 A,4 | G,8 F,4 F,4 | B,6 B,2 B,4 A,4- | A,4 ^G,4 A,4 F,4 | E,16 | z16 | %123
w: ple- ta est|a- ni- ma|no- stra, op-|pro- bri- um a-|* bun- dan- ti-|bus,||
 z16 | E,8 B,,8 | D,12 C,4 | B,,4 A,,4 B,,8 | A,,2 B,,2 C,2 D,2 E,8 | B,,8 z8 | z16 | z8 z4 E,4- | %131
w: |et de-|spe- cti-|o su- per-|bis, _ _ _ _|_||et|
 E,4 B,,4 D,4 D,4 | A,,8 A,,8 | B,,16 | E,16- | E,16 |] %136
w: _ de- spe- cti-|o su-|per-|bis.|_|

